!!!COM:	Josquin des Prez
!!!CDT:	~1450-1521/08/27
!!!OPR:	Missa Ave maris stella
!!!ONM:	1
!!!OTL:	Kyrie
!!!AGN:	Mass; Kyrie
!!!SCT:	NJE 3.1
!!!SCA:	New Josquin Edition 3.1
!!!voices: 4
!!!voices-OPR:	4
**kern	**kern	**kern	**kern
*staff4	*staff3	*staff2	*staff1
*Ivox	*Ivox	*Ivox	*Ivox
*I"Bassus	*I"Tenor	*I"Altus	*I"Superius
*I'B	*I'T	*I'A	*I'S
*>[A,B,C]	*>[A,B,C]	*>[A,B,C]	*>[A,B,C]
*>Kyrie1[A]	*>Kyrie1[A]	*>Kyrie1[A]	*>Kyrie1[A]
*>Christe[B]	*>Christe[B]	*>Christe[B]	*>Christe[B]
*>Kyrie2[C]	*>Kyrie2[C]	*>Kyrie2[C]	*>Kyrie2[C]
*clefF4	*clefGv2	*clefGv2	*clefG2
*k[b-]	*k[b-]	*k[b-]	*k[b-]
*>A	*>A	*>A	*>A
*M3/1	*M3/1	*M3/1	*M3/1
*met(O)	*met(O)	*met(O)	*met(O)
=1-	=1-	=1-	=1-
!!section: Kyrie I
!!!OMD: Kyrie I
0.r	0.r	1G	0.r
.	.	1.d	.
.	.	4c\	.
.	.	4d\	.
=2	=2	=2	=2
0.r	0.r	1e	1g
.	.	2d\	1.dd
.	.	1f	.
.	.	4e\	4cc\
.	.	4d\	4dd\
=3	=3	=3	=3
0.r	0.r	2c\	1ee
.	.	2.g\	.
.	.	.	2dd\
.	.	4f\	.
.	.	2d\	1ff
.	.	2f\	.
.	.	2g\	4ee\
.	.	.	4dd\
=4	=4	=4	=4
0.r	0.r	2e\	1cc
.	.	1f	.
.	.	.	1dd
.	.	4e\	.
.	.	4d\	.
.	.	2c\	1ee
.	.	2g\	.
=5	=5	=5	=5
1D	0.r	2f\	2.ff\
.	.	2.a\	.
.	.	.	8ee\L
.	.	.	8ff\J
1.A	.	.	4ee\
.	.	4g\	4dd\
.	.	2f\	1dd
.	.	1e	.
4G\	.	.	2cc#i\
4A\	.	.	.
=6	=6	=6	=6
1.B-	1G	1d	1.dd
.	1.d	2.G/	.
2G\	.	.	1b-
.	.	4A/	.
1G	.	1B-	.
.	4c\	.	2g/
.	4d\	.	.
=7	=7	=7	=7
2r	0e	2.c\	1.g
1c	.	.	.
.	.	4d\	.
.	.	4e\	.
.	.	4f\	.
2B-\	.	1g	4a/
.	.	.	4b-\
1A	1c	.	1cc
.	.	2f#i\	.
=8	=8	=8	=8
1G	1d	1g	1b-
2.F\	0f	2r	2a/
.	.	2c\	1a
4E\	.	.	.
1D	.	2d\	.
.	.	2A/	2f/
=9	=9	=9	=9
2C/	2.e\	1c	2.g/
1c	.	.	.
.	4d\	.	4f/
.	2e\	2r	2e/
2B-\	2f\	2d\	2d/
2G\	1g	2B-\	2r
[2B-\	.	2G/	[2dd\
=10	=10	=10	=10
4B-\]	2.f\	1d	4dd\]
4A\	.	.	4cc\
2F\	.	.	2a/
.	4d\	.	.
2G\	2e\	2r	2g/
2D\	1d	2F/	1b-
1E	.	2.G/	.
.	2c#i\	.	4a/
.	.	4A/	4g/
=11	=11	=11	=11
0D	1d	2B-\	0f
.	.	1A	.
.	1r	.	.
.	.	2F/	.
2r	1d	4G/	1b-
.	.	4A/	.
2G\	.	4B-\	.
.	.	4G/	.
=12	=12	=12	=12
2F\	1d	2A/	2a/
2.G\	.	2G/	2.b-\
.	2G/	2r	.
4E\	.	.	4cc\
2F\	2A/	2c\	2a/
1G	1B-	2B-\	2g/
.	.	[2G/	2dd\
=13	=13	=13	=13
1C	2.c\	4G/]	1ee-i
.	.	4A/	.
.	.	2c\	.
.	4B-\	.	.
2r	2G/	2B-\	2.dd\
2G\	2B-\	2G/	.
.	.	.	4b-\
2F\	2A/	2r	4cc\
.	.	.	4dd\
[2G\	2G/	2d\	[2b-\
=14	=14	=14	=14
4G\]	2.c\	2e-i\	4b-\]
4E\	.	.	4g/
2F\	.	2c\	2.a/
.	4B-\	.	.
1G	2G/	2e-i\	.
.	.	.	4b-\
.	2B-\	[1.d	2.g/
1D	1A	.	.
.	.	.	4e/
.	.	.	2f#i/
=15	=15	=15	=15
0.Gl	0.Gl	2d\]	0.gl
.	.	2B-\	.
.	.	1e-	.
.	.	1dl	.
!!LO:PB:i:g=z
=16||	=16||	=16||	=16||
*>B	*>B	*>B	*>B
!!section: Christe
!!!OMD: Christe
*M2/1	*M2/1	*M2/1	*M2/1
*met(C|)	*met(C|)	*met(C|)	*met(C|)
0r	0r	0r	1.b-
.	.	.	4a/
.	.	.	4g/
=17	=17	=17	=17
0r	0r	0r	1b-
.	.	.	[1a
=18	=18	=18	=18
0r	0r	1.f	2a/]
.	.	.	2b-\
.	.	.	2cc\
.	.	4e\	2dd\
.	.	4d\	.
=19	=19	=19	=19
0r	0r	2f\	2a/
.	.	2g\	1dd
.	.	1e	.
.	.	.	2cc#i\
=20	=20	=20	=20
0r	1.B-	2.d\	0dd
.	.	4e\	.
.	.	2f\	.
.	4A/	[2g\	.
.	4G/	.	.
=21	=21	=21	=21
0r	1B-	2g\]	1r
.	.	2d\	.
.	[1A	2.f\	1r
.	.	4e\	.
=22	=22	=22	=22
1.F	2A/]	1c	0r
.	2B-\	.	.
.	2c\	2.F/	.
4E\	2d\	.	.
4D\	.	4G/	.
=23	=23	=23	=23
2F\	2A/	2A/	0r
2G\	1d	2B-\	.
1E	.	2.G/	.
.	2c#i\	.	.
.	.	4A/	.
=24	=24	=24	=24
2.D\	[0d	2B-\	0r
.	.	2.A/	.
4E\	.	.	.
2F\	.	.	.
.	.	4G/	.
2G\	.	2B-\	.
=25	=25	=25	=25
2D\	0d]	2A/	0r
1G	.	2G/	.
.	.	1A	.
2F#i\	.	.	.
=26	=26	=26	=26
[0G	0d	1r	[0dd
.	.	1G	.
=27	=27	=27	=27
0G]	[0G	0B-	0dd]
=28	=28	=28	=28
0C	1G]	0c	0ee-i
.	1A	.	.
=29	=29	=29	=29
0G	0B-	[0d	1.dd
.	.	.	2ee\
=30	=30	=30	=30
1.D	1.A	1d]	1.ff
.	.	[1f	.
2E\	2G/	.	4ee\
.	.	.	4dd\
=31	=31	=31	=31
1F	1A	1f]	2cc\
.	.	.	2a/
1BB-	1B-	1d	1dd
=32	=32	=32	=32
0E-i	0G	2.e-\	2cc\
.	.	.	1b-
.	.	4d\	.
.	.	2B-\	.
.	.	2c\	4a/
.	.	.	4g/
=33	=33	=33	=33
[0Dl	[0Fl	2.d\	1b-
.	.	4c\	.
.	.	2d\	1a
.	.	2A/	.
=34	=34	=34	=34
0D]	0F]	0dl	0al
!!LO:LB:i:g=z
=35||	=35||	=35||	=35||
*>C	*>C	*>C	*>C
!!section: Kyrie I
!!!OMD: Kyrie II
*M3/1	*M3/1	*M3/1	*M3/1
*met(O)	*met(O)	*met(O)	*met(O)
0.r	1r	0.r	0a
.	0A	.	.
.	.	.	[1cc
=36	=36	=36	=36
0.r	1.c	0.r	2cc\]
.	.	.	4b-\
.	.	.	4a/
.	.	.	2g/
.	4B-\	.	2a/
.	4A/	.	.
.	2G/	.	[1b-
.	2A/	.	.
=37	=37	=37	=37
0.r	1.B-	0.r	2b-\]
.	.	.	4a/
.	.	.	4g/
.	.	.	2f/
.	2G/	.	1g
.	1A	.	.
.	.	.	2f#i/
=38	=38	=38	=38
1r	0.G	2r	0.g
.	.	2d\	.
1r	.	2e\	.
.	.	2f\	.
1E	.	[1g	.
=39	=39	=39	=39
1.G	0.r	2g\]	0.r
.	.	4f\	.
.	.	4e\	.
.	.	2d\	.
4F\	.	2e\	.
4E\	.	.	.
2D\	.	[1f	.
2E\	.	.	.
=40	=40	=40	=40
1.F	0.r	2f\]	0.r
.	.	4e\	.
.	.	4d\	.
.	.	2c\	.
2D\	.	1d	.
1E	.	.	.
.	.	2c#i\	.
=41	=41	=41	=41
1.D	1r	2d\	0.r
.	.	1f	.
.	0A	.	.
1F	.	4e\	.
.	.	4d\	.
.	.	1c	.
4E\	.	.	.
4D\	.	.	.
=42	=42	=42	=42
2.C/	1.c	0.r	0.r
4D\	.	.	.
2E\	.	.	.
2F\	4B-\	.	.
.	4A/	.	.
2G\	2G/	.	.
2F\	2A/	.	.
=43	=43	=43	=43
2G\	1.B-	0.r	0.r
2D\	.	.	.
4E\	.	.	.
4D\	.	.	.
1G	2G/	.	.
.	1A	.	.
2F#i\	.	.	.
=44	=44	=44	=44
0G	0.G	1r	2r
.	.	.	2g/
.	.	2r	2.b-\
.	.	2G/	.
.	.	.	4cc\
1r	.	2.B-\	1dd
.	.	4c\	.
=45	=45	=45	=45
0.r	0.r	1.d	2.dd\
.	.	.	8cc\L
.	.	.	8b-\J
.	.	.	2a/
.	.	4c\	2b-\
.	.	4B-\	.
.	.	2A/	[1cc
.	.	2B-\	.
=46	=46	=46	=46
0.r	0.r	1.c	2cc\]
.	.	.	4b-\
.	.	.	4a/
.	.	.	2g/
.	.	2A/	1a
.	.	1B-	.
.	.	.	2g/
=47	=47	=47	=47
0D	1r	1A	0a
.	0A	1d	.
[1F	.	1c	2r
.	.	.	[2a/
=48	=48	=48	=48
1F]	1.c	1f	2a/]
.	.	.	2f/
0C	.	1e	2a/
.	4B-\	.	1g
.	4A/	.	.
.	2G/	1c	.
.	2A/	.	2e/
=49	=49	=49	=49
2r	1.B-	1.d	2g/
2.BB-/	.	.	2f/
.	.	.	2d/
4C/	.	.	.
2E-i\	2G/	2c\	2.g/
2D\	2A/	1d	.
.	.	.	4f/
[2G\	2B-\	.	4g/
.	.	.	4a/
=50	=50	=50	=50
4G\]	2G/	2r	2.b-\
4F\	.	.	.
2G\	1B-	1d	.
.	.	.	4a/
2D\	.	.	2f/
2E\	4A/	2c\	1g
.	4G/	.	.
1D	1A	[1dl	.
.	.	.	2f#i/
=51	=51	=51	=51
0.Gl	0.Gl	0.d]	0.gl
==	==	==	==
*-	*-	*-	*-
!!!RDF**kern: l=long note in original notation
!!!RDF**kern: i=editorial accidental
!!!ENC: Jesse Rodin; Victoria Chang 2011/04/01/
!!!END: 2011/04/01/
!!!EED:	Jesse Rodin
!!!EEV:	2011/04/06/
!!attribution-level@Jos: 1 (secure)
!!!ONB:	Translated from MusicXML and edited on 2011/04/06/ by Craig Sapp
!!muse2ps: T^@{OPR}^u^@{ONM}{. }@{OTL}^C^@{COM}\n@{SCT}^i2I100v85,90,85,150Q16
